src/travel-places/transport-ground/1F6FB.svg

<svg id="emoji" viewBox="0 0 72 72" xmlns="http://www.w3.org/2000/svg">
  <g id="grid">
    <path fill="#b3b3b3" d="M68,4V68H4V4H68m4-4H0V72H72V0Z"/>
    <rect x="11" y="10.9583" rx="1.9231" width="50" height="50" fill="none" stroke="#00a5ff" stroke-miterlimit="10" stroke-width="0.1"/>
    <rect x="16" y="4" rx="2.2537" width="40" height="64" fill="none" stroke="#00a5ff" stroke-miterlimit="10" stroke-width="0.1"/>
    <rect x="16" y="4" rx="2.2537" width="40" height="64" transform="rotate(90 36 36)" fill="none" stroke="#00a5ff" stroke-miterlimit="10" stroke-width="0.1"/>
    <circle cx="36" cy="36" r="29" fill="none" stroke="#00a5ff" stroke-miterlimit="10" stroke-width="0.1"/>
  </g>
  <g id="color">
    <path fill="#d22f27" d="M6.7469,52a.9994.9994,0,0,1-1-1V41.8889A3.2209,3.2209,0,0,1,8.4891,38.69l11.3713-2,6.3535-7.8a7.3957,7.3957,0,0,1,5.7529-2.7334H43.2041a2.173,2.173,0,0,1,2.1709,2.1709v8.5273H65.0229a1,1,0,0,1,1,1L66.0259,52Z"/>
    <path fill="#92d3f5" d="M41.2232,38.3284H37.3023a1,1,0,0,1-1-1V30.221a.9994.9994,0,0,1,1-1H40.74a1.5441,1.5441,0,0,1,1.4834,1.5957v6.5117A.9994.9994,0,0,1,41.2232,38.3284Z"/>
    <path fill="#92d3f5" d="M34.0948,38.3284H24.65a1,1,0,0,1-.7832-1.6211l3.5859-4.5195c.1944-.2334.3594-.4385.5166-.6319,1.0147-1.2529,1.8916-2.3349,3.5567-2.3349h2.5684a.9994.9994,0,0,1,1,1v7.1074A1,1,0,0,1,34.0948,38.3284Z"/>
    <circle cx="16" cy="51" r="5" fill="#3f3f3f"/>
    <circle cx="52.9331" cy="51" r="5" fill="#3f3f3f"/>
    <path fill="#d0cfce" d="M16,54a3,3,0,1,1,3-3A3.0033,3.0033,0,0,1,16,54Z"/>
    <path fill="#d0cfce" d="M52.9336,54a3,3,0,1,1,3-3A3.0033,3.0033,0,0,1,52.9336,54Z"/>
    <path fill="#fcea2b" d="M6.0629,41.9918H9.7953a1.679,1.679,0,0,1,1.4453.8012,1.6077,1.6077,0,0,1,.042,1.6236l-1.4317,2.63a1.7614,1.7614,0,0,1-1.5507.91H7.0629a.9891.9891,0,0,1-1-.9791V41.9918Zm2,4.9863h0Z"/>
    <path fill="#fcea2b" d="M64.9892,43.9108v3.0673a.9891.9891,0,0,1-1,.9791H62.7519a1.7614,1.7614,0,0,1-1.5507-.91l-1.4317-2.63a1.6077,1.6077,0,0,1,.042-1.6236,1.679,1.679,0,0,1,1.4453-.8012h3.7324Zm-2.01,3.0673h0Z"/>
    <path fill="#d0cfce" d="M66.36,52H57.9331V47.9572h7.0794c1.1463,0,2.9033-.08,2.9033.6587v2.8252C67.8347,51.7641,66.9928,52,66.36,52Z"/>
    <path fill="#d0cfce" d="M10.0717,52H4.3969C3.6248,52,3,51.7,3,51.3283V49.9917c0-2.0506,0-2.0506,4.2629-2.0506h4.2193L11.4686,51.33C11.4672,51.7,10.8424,52,10.0717,52Z"/>
  </g>
  <g id="line">
    <path fill="none" stroke="#000" stroke-linecap="round" stroke-linejoin="round" stroke-width="2" d="M60.6527,43.9981l1.4315,2.686c.1314.2466.2636.27.6675.2749h2.7719a2.0051,2.0051,0,0,1,2.033,2.3211l-.3039,1.7146H60.831"/>
    <path fill="none" stroke="#000" stroke-linecap="round" stroke-linejoin="round" stroke-width="2" d="M6.0521,46.9781V41.8892a2.2373,2.2373,0,0,1,1.8958-2.2111L20.3928,37.62l6.5967-8.098a6.419,6.419,0,0,1,4.9769-2.365H43.2046a1.1708,1.1708,0,0,1,1.1708,1.1708v9.5273H65v9.1233"/>
    <path fill="none" stroke="#000" stroke-linecap="round" stroke-linejoin="round" stroke-width="2" d="M10.3994,43.9981l-1.4315,2.686c-.1314.2466-.2636.27-.6675.2749H6.0521A2.0522,2.0522,0,0,0,4,49.011V51l4.0629,0"/>
    <path fill="none" stroke="#000" stroke-linecap="round" stroke-linejoin="round" stroke-width="2" d="M41.2234,30.8165v6.5121H37.3023"/>
    <polyline fill="none" stroke="#000" stroke-linecap="round" stroke-linejoin="round" stroke-width="2" points="34.095 30.817 34.095 37.329 24.65 37.329"/>
    <circle cx="16" cy="51" r="5" fill="none" stroke="#000" stroke-linecap="round" stroke-linejoin="round" stroke-width="2"/>
    <circle cx="52.9331" cy="51" r="5" fill="none" stroke="#000" stroke-linecap="round" stroke-linejoin="round" stroke-width="2"/>
    <line x1="23.6505" x2="44.8615" y1="51" y2="51" fill="none" stroke="#000" stroke-linecap="round" stroke-linejoin="round" stroke-width="2"/>
  </g>
</svg>

<svg viewBox="0 0 72 72" xmlns="http://www.w3.org/2000/svg"><path fill="#b3b3b3" d="M68 4v64H4V4h64m4-4H0v72h72V0z"/><rect x="11" y="10.958" rx="1.923" width="50" height="50" fill="none" stroke="#00a5ff" stroke-miterlimit="10" stroke-width=".1"/><rect x="16" y="4" rx="2.254" width="40" height="64" fill="none" stroke="#00a5ff" stroke-miterlimit="10" stroke-width=".1"/><rect x="16" y="4" rx="2.254" width="40" height="64" transform="rotate(90 36 36)" fill="none" stroke="#00a5ff" stroke-miterlimit="10" stroke-width=".1"/><circle cx="36" cy="36" r="29" fill="none" stroke="#00a5ff" stroke-miterlimit="10" stroke-width=".1"/><g stroke-linecap="round" stroke-miterlimit="10" stroke-width="6" stroke="#fff" fill="none" stroke-linejoin="round"><path d="M60.653 43.998l1.431 2.686c.132.247.264.27.668.275h2.772a2.005 2.005 0 012.033 2.321l-.304 1.715H60.83"/><path d="M6.052 46.978V41.89a2.237 2.237 0 011.896-2.21l12.445-2.059 6.597-8.098a6.419 6.419 0 014.976-2.365h11.239a1.17 1.17 0 011.17 1.17v9.528H65v9.123"/><path d="M10.4 43.998l-1.432 2.686c-.131.247-.264.27-.668.275H6.052A2.052 2.052 0 004 49.011V51h4.063m33.16-20.183v6.512h-3.92m-3.208-6.512v6.512H24.65"/><circle cx="16" cy="51" r="5"/><circle cx="52.933" cy="51" r="5"/><path d="M23.651 51h21.21"/></g><path fill="#d22f27" d="M6.747 52a1 1 0 01-1-1v-9.111a3.22 3.22 0 012.742-3.199l11.371-2 6.354-7.8a7.396 7.396 0 015.753-2.733h11.237a2.173 2.173 0 012.171 2.17v8.528h19.648a1 1 0 011 1L66.026 52z"/><path fill="#92d3f5" d="M41.223 38.328h-3.92a1 1 0 01-1-1v-7.107a1 1 0 011-1h3.437a1.544 1.544 0 011.483 1.596v6.511a1 1 0 01-1 1zm-7.128 0H24.65a1 1 0 01-.783-1.62l3.586-4.52c.194-.234.36-.439.516-.632 1.015-1.253 1.892-2.335 3.557-2.335h2.568a1 1 0 011 1v7.107a1 1 0 01-1 1z"/><circle cx="16" cy="51" r="5" fill="#3f3f3f"/><circle cx="52.933" cy="51" r="5" fill="#3f3f3f"/><path fill="#d0cfce" d="M16 54a3 3 0 113-3 3.003 3.003 0 01-3 3zm36.934 0a3 3 0 113-3 3.003 3.003 0 01-3 3z"/><path fill="#fcea2b" d="M6.063 41.992h3.732a1.679 1.679 0 011.446.801 1.608 1.608 0 01.042 1.624l-1.432 2.63a1.761 1.761 0 01-1.55.91H7.062a.99.99 0 01-1-.98v-4.985zm2 4.986zM64.99 43.91v3.068a.99.99 0 01-1 .98h-1.238a1.761 1.761 0 01-1.55-.91l-1.432-2.63a1.608 1.608 0 01.041-1.624 1.679 1.679 0 011.446-.802h3.732zm-2.01 3.068z"/><path fill="#d0cfce" d="M66.36 52h-8.427v-4.043h7.08c1.146 0 2.903-.08 2.903.659v2.825c-.081.323-.923.559-1.556.559zm-56.288 0H4.397C3.625 52 3 51.7 3 51.328v-1.336c0-2.05 0-2.05 4.263-2.05h4.22l-.014 3.388c-.002.37-.627.67-1.397.67z"/><g fill="none" stroke="#000" stroke-linecap="round" stroke-linejoin="round" stroke-width="2"><path d="M60.653 43.998l1.431 2.686c.132.247.264.27.668.275h2.772a2.005 2.005 0 012.033 2.321l-.304 1.715H60.83"/><path d="M6.052 46.978V41.89a2.237 2.237 0 011.896-2.21l12.445-2.059 6.597-8.098a6.419 6.419 0 014.976-2.365h11.239a1.17 1.17 0 011.17 1.17v9.528H65v9.123"/><path d="M10.4 43.998l-1.432 2.686c-.131.247-.264.27-.668.275H6.052A2.052 2.052 0 004 49.011V51h4.063m33.16-20.183v6.512h-3.92m-3.208-6.512v6.512H24.65"/><circle cx="16" cy="51" r="5"/><circle cx="52.933" cy="51" r="5"/><path d="M23.651 51h21.21"/></g></svg>
